X: 997
T: Uncle Herman's Hornpipe
B: jims roots
M:4/4
L:1/8
R: hornpipe
Q: 1/4=100
K:Dmaj
V:1 
%N:ABC'd from Mandolin Magazine 1999 by Jim Kendrick
ag|:"D"fdAf "A"ecAd | "G"BGDB "D"AFDF | "A"ECEA "D"DFAF | "E"EGBc "A"Acea|
"D"fdAf "A"ecAd | "G"BGDB "D"AFDF | "A"ECEA "D"DFAF | "A"EDCE "D"D2:|
|:cd |"A"efec ABcA | "E"EGBc "A"Acea | "D"fdAf "A"ecAc | "E"BAGB "A"A2:|
|: cd | "A"ecAa "D"fdAf | "A"ecAa "D"fdfa | "A"ecAa "D"fdAc | "E"BAGB "A"A2:|
% abcbook-tune_id 6298c297a10710f62587c342


% abcbook-boost 0
% abcbook-tablature 
% abcbook-transpose 
% abcbook-lastupdated 1654178456503
% abcbook-soundfonts 
% abcbook-repeats 1


